X:57
T:Father O'Flynn's aka The Top of Cork Road
Z:Julie Ross
R:jig
M:6/8
K:D
dAF DFA|Bed cBA|dcd efg|fdf ecA|
dAF DFA|Bed cBA|dcd efg|1 fdc d2A:|2 fdc d2e||
|:fdf fga|ecA ABc|dcd Bed|cAA A2=c|
BGB Bcd|AFD DFA|1 dcd efg|fdc dag:|2 dcd efg|fdc d2A||
BGB Bcd|AFD DFA|1 dcd efg|fdc dag:|2 dcd efg|fdc d2A||
